packages/icons/general/LinkOut.dark.svg

<svg width="16" height="16" viewBox="0 0 16 16" xmlns="http://www.w3.org/2000/svg">
<g>
        <path
            d="M12.6667 13.1667H13.1667V12.6667V8.5H13.5V12.6667C13.5 13.1239 13.1239 13.5 12.6667 13.5H3.33333C2.8711 13.5 2.5 13.1255 2.5 12.6667V3.33333C2.5 2.87451 2.8711 2.5 3.33333 2.5H7.5V2.83333H3.33333H2.83333V3.33333V12.6667V13.1667H3.33333H12.6667ZM13.1667 6.16667V4.27333V3.06623L12.3131 3.91978L6.11333 10.1196L5.88044 9.88667L12.0802 3.68689L12.9338 2.83333H11.7267H9.83333V2.5H13.5V6.16667H13.1667Z"
            fill="#F5F5F5"
        />
    </g>
</svg>

<svg xmlns="http://www.w3.org/2000/svg" width="16" height="16">
    <path fill="#F5F5F5" d="M12.667 13.167h.5V8.5h.333v4.167a.837.837 0 0 1-.833.833H3.333a.833.833 0 0 1-.833-.833V3.333c0-.458.371-.833.833-.833H7.5v.333H2.833v10.334h9.834Zm.5-7V3.066l-.854.854-6.2 6.2-.233-.233 6.2-6.2.854-.854H9.833V2.5H13.5v3.667h-.333Z"/>
</svg>
